X: 1
T: 'Et dodim kala
O: Israel
Z: John Chambers <jc@trillian.mit.edu>
M: 4/4
L: 1/8
K: DPhr
|: "D"DA2A A2A2 | "Gm"BABA BAG2 | "Cm"cBBA AG^FG | "D"A8 :|
|: "D"AGG^F FEDE | ^F8 |1 AAGG^F FEED | (DA7) :|2 "Cm"AAGG^F FEED | "D"D8 |]
